X:1
T:James Gibb editions
T:Mon amy - Ninot le Petit
T:#
%%score [ 1 2 3 4 ]
L:1/8
Q:1/4=130
M:2/2
K:F
V:1 treble nm="Alto" snm="A"
V:2 treble-8 nm="Tenor I" snm="T I"
V:3 treble-8 nm="Tenor II" snm="T II"
V:4 bass nm="Bass" snm="B"
V:1
"^Mon amy m'avait promis""^Ninot le Petit\n(early 1500s)" z8 | z8 | z8 | B6 B2 | A4 G2 (B2- | %5
w: |||Mon a-|my m'a- vait|
 BA G4) F2 |[M:2/2] G4 z4 | G6 G2 | d2 d2 d2 d2 | (B2 AG F2 GA | Bc d4 cB | A2 B4 A2) | B8 | z8 | %14
w: * * * pro-|mis|U- ne|si bel- le cein-|tu\- * * * * *|||re.||
 z8 | z8 | z8 | B6 B2 | c4 A4 | B4 G2 (B2- | BA G4 ^FE) | ^F8 | z8 | z8 | B3 B G2 B2 | %25
w: |||Il ne|me l'a|point don- né\-||e,|||il le m'a bien|
 A2 G2 ^F2 G2 | G3 A B2 A2 | G2 (B3 A) (c2- | c BAG A2 G2 | ^F2 G4 F2) | G4 z2 G2- | G2 G2 F2 G2 | %32
w: cher ven- du- e,|il le m'a bien|cher ven\- * du\-|||e. Ay|* ay ay ay|
 z2 B2 z2 B2 | z2 B2 z2 B2 | z2 A2 z2 G2 | G3 G G2 G2 | ^F2 G2 z2 B2 | z2 B2 z2 A2 | z2 G4 G2 | %39
w: ay ay|ay ay|ay ay|ay ay ay ay|ay ay ay|ay ay|ay ay|
 F2 G2 GGGG | G2 G2 G2 G2 | (B6- AG | ^F8) | z8 | G3 G ^F2 G2 | z8 | z8 | z8 | z2 B2 B2 B2 | %49
w: ay ay ay ay ay ay|ay dist Ma- ri-|on * *|||Ay ay ay ay||||Vous mi des-|
 (cBAG B2) (A2- | AG) G4 ^F2 | G4 G3 G | G2 G2 ^F2 G2 | z2 B2 z2 B2 | z2 A2 z2 G2- | G2 G2 ^F2 G2 | %56
w: chi\- * * * * rez|* * mon pil-|chon Ay ay|ay ay ay ay|ay ay|ay ay|* ay ay ay|
 GGGG ^F2 G2 | z2 B2 B2 B2 | c4 B2 (A2- | AG G4) ^F2 | G2 B2 z2 B2 | B z B2 B2 B2 | z2 B2 B2 B2 | %63
w: ay ay ay ay ay ay|vous mi des-|chi- rez mon|* * * pli-|chon, vous, vous|mi vous mi des,|vous mi des-|
 (cBAG) B2 B2 | B2 B2 (cBAG) | B2 A2 z2 B2 | B2 B2 (cBAG) | B2 (A3 G) G2 | z2 B2 B2 B2 | %69
w: chi\- * * * rez, vous|mi des- chi\- * * *|rez mon, vous|mi des- chi\- * * *|rez mon * pli,|vous mi des-|
 (cBAG) B2 (A2- | AG) G4 ^F2 | z2 B2 B2 B2 | (cBAG) B2 (A2- | AG G4) ^F2 | G8- | G8 |] %76
w: chi\- * * * rez mon|* * pli- chon,|vous mi des-|chi\- * * * rez mon|* * * pli-|chon.||
V:2
 B6 B2 | A4 G2 (B2- | BA G4) ^F2 | G4 z2 G2 | (F2 GA Bcde | f2) (d2- dcBA) | %6
w: Mon a-|my m'a- vait|* * * pro-|mis, m'a-|vait * * * * * *|* pro\- * * * *|
[M:2/2][K:treble-8] B4 z4 | G6 G2 | B6 B2 | G4 A2 (B2- | B2 AG F2 f2- | f2 e2 f4) | d8- | d8 | z8 | %15
w: mis|u- ne|si bel-|le cein- tu\-|||re.|||
 z8 | z8 | d6 d2 | c2 (f3 edc | B2) (_e4 d2- | d2 (cB) c4 | d8 | B3 B G2 B2 | A2 G2 ^F2 G2 | z8 | %25
w: ||Il ne|me l'a * * *|* point *|* don\- * né-|e,|il le m'a bien|cher ven- du- e,||
 z8 | d4 e2 f2 | d2 g2 g3 f | _edcB A2 d2- | d2 c2) d4 | B4 z2 d2- | d2 _e2 d2 B2 | z2 g2 z2 g2 | %33
w: |il le m'a|bien cher ven\- *||* * du-|e. Ay|* ay ay ay|ay ay|
 z2 g2 z2 g2 | z2 f2 z2 B2 | d3 d d2 d2 | d2 B2 z2 d2 | z2 d2 z2 f2 | z2 d4 _e2 | d2 B2 dddd | %40
w: ay ay|ay ay|ay ay ay ay|ay ay ay|ay ay|ay ay|ay ay ay ay ay ay|
 _e2 e2 (e2 dc | _e2 d3 c/B/) c2 | d8 | G3 G ^F2 G2 | z8 | z2 B2 B2 B2 | (cBAG B2) A2- | %47
w: ay dist Ma\- * *|* * * * ri-|on|Ay ay ay ay||Vous mi des-|chi\- * * * * rez|
 A2 G4 ^F2 | G2 f2 f2 f2 | g4 f2 f2- | f2 d2 d4 | z4 d3 d | _e2 e2 d4 | z2 g2 z2 d2 | %54
w: * mon pil-|chon, vous mi des-|chi- rez mon|* pil- chon|Ay ay|ay ay ay|ay ay|
 z2 f2 z2 d2- | d2 d2 d2 B2 | _eeee d2 B2 | z2 d2 g2 g2 | g4 f2 f2- | f2 d2 d4 | z2 g2 z2 g2 | %61
w: ay ay|* ay ay ay|ay ay ay ay ay ay|vous mi des-|chi- rez mon|* pli- chon,|vous, vous|
 g z g2 g2 g2 | z2 g2 f2 f2 | g4 f2 g2 | g2 g2 g4 | f2 f2 z2 d2 | f2 f2 g4 | f2 f4 d2 | %68
w: mi, vous mi des,|vous mi des-|chi- rez, vous|mi des- chi-|rez mon, vous|mi des- chi-|rez mon pli,|
 z2 g2 g2 g2 | g4 f2 f2- | f2 d2 d4 | z2 d2 f2 f2 | g4 f2 (f2- | f2 d2 d4) | B8 | d8 |] %76
w: vous mi des-|chi- rez mon|* pli- chon,|vous mi des-|chi- rez mon||pli-|chon.|
V:3
 z8 | z8 | z8 | B6 B2 | (f2 _ed) e2 (d2- | d2 cB A2) A2 |[M:2/2][K:treble-8] G8 | z8 | G6 G2 | %9
w: |||Mon a-|my * * m'a- vait|* * * * pro-|mis||u- ne|
 d6 d2 | d4 d4 | (c2 B2 c4) | B4 z4 | B6 B2 | c4 A4 | G2 B4 (AG) | F8 | z8 | z2 c2 c2 (BA) | %19
w: si bel-|le cein-|tu\- * *|re.|Il ne|me l'a|point don- né\- *|e,||Il ne me *|
 G2 B2 (BAGF | G4 G4 | A8 | z8 | z8 | G3 A B2 G2 | c2 B2 A2 G2 | G6 A2 | B4 G4 | c6 B2 | %29
w: l'a point don\- * * *|* né-|e,|||il le m'a bien|cher ven- du- e,|il le|m'a bien|cher ven-|
 A2 G2 A4) | G4 z2 B2- | B2 B2 A2 G2 | d2 z2 d2 z2 | d2 z2 d2 z2 | c2 z2 A2 z2 | B3 B B2 B2 | %36
w: du\- * *|e. Ay|* ay ay ay|ay ay|ay ay|ay ay|ay ay ay ay|
 A2 G2 G2 z2 | B2 z2 c2 z2 | z2 B4 c2 | A2 G2 BBBB | c2 c2 c2 c2 | (BAGF) G4 | A8 | z8 | %44
w: ay ay ay|ay ay|ay ay|ay ay ay ay ay ay|ay ay ay dist|Ma\- * * * ri-|on||
 B3 B A2 G2 | z8 | z8 | z8 | z2 d2 d2 d2 | _e4 d2 (c2- | cBAG) A4 | G4 B3 B | c2 c2 A2 G2 | %53
w: Ay ay ay ay||||Vous mi des-|chi- rez mon|* * * * Pil-|chon Ay ay|ay ay ay ay|
 d2 z2 B2 z2 | c2 z2 B3 B | B2 G2 A2 B2 | cccc A2 G2 | z2 d2 d2 d2 | _e4 d2 (c2- | cBAG) A4 | %60
w: ay ay|ay ay ay|ay ay ay ay|ay ay ay ay ay ay|vous mi des-|chi- rez mon|* * * * pli-|
 G2 d2 z2 d2 | d z d2 d2 d2 | z2 d2 d2 d2 | _e4 d2 d2 | d2 d2 _e4 | d2 c2 z2 d2 | d2 d2 _e4 | %67
w: chon, vous, vous|mi, vous mi des,|vous mi des-|chi- rez, vous|mi des- chi-|rez mon, vous|mi des- chi-|
 d2 c4 B2 | z2 d2 d2 d2 | _e4 d2 c2- | c2 B2 A4 | z2 d2 d2 d2 | _e4 d2 (c2- | cBAG) A4 | G8- | %75
w: rez mon pli,|vous mi des-|chi- rez mon|* pli- chon,|vous mi des-|chi- rez mon|* * * * pli-|chon.|
 G8 |] %76
w: |
V:4
 B,,6 B,,2 | (F,2 _E,D,) E,2 (D,2- | D,2 C,B,, A,,2) A,,2 | G,,8 | z4 G,,4 | D,4 D,4 | %6
w: Mon a-|my * * m'a- vait|* * * * pro-|mis,|m'a-|vait pro-|
[M:2/2] G,,8- | G,,8 | z4 G,,4- | G,,2 G,,2 D,2 D,2 | B,,2 B,,2 (B,,C,D,E, | F,2 G,2 F,4) | B,,8 | %13
w: mis||u\-|* ne si bel-|le cein- tu\- * * *||re.|
 z8 | F,6 F,2 | G,4 _E,4 | D,4 D,4 | G,,2 G,3 F, G,2 | (A,G,F,E,) F,4 | z2 (G,2- G,F,_E,D,) | E,8 | %21
w: |Il ne|me l'a|point don-|née, Il ne me|l'a * * * point|don\- * * * *|né-|
 D,8 | G,,3 A,, B,,2 G,,2 | C,2 B,,2 A,,2 G,,2 | z8 | z8 | z2 G,4 D,2 | G,4 (G,F,E,D,) | %28
w: e,|il le m'a bien|cher ven- du- e,|||il le|m'a bien * * *|
 (C,2 F,4) G,2 | (D,2 _E,2 D,4) | G,,4 z2 G,2- | G,2 G,2 D,2 G,,2 | G,2 z2 G,2 z2 | G,2 z2 G,2 z2 | %34
w: cher * ven-|du\- * *|e. Ay|* ay ay ay|ay ay|ay ay|
 C,2 z2 D,2 z2 | G,3 G, G,2 G,2 | D,2 G,,2 G,,2 z2 | G,2 z2 F,2 z2 | z2 G,4 C,2 | %39
w: ay ay|ay ay ay ay|ay ay ay|ay ay|ay ay|
 D,2 G,,2 G,G,G,G, | C,2 C,2 C,2 C,2 | G,4 _E,4 | D,8 | B,,3 B,, A,,2 G,,2 | z8 | z2 D,2 D,2 D,2 | %46
w: ay ay ay ay ay ay|ay ay ay dist|Ma- ri-|on|Ay ay ay ay||Vous mi des-|
 (E,D,C,B,, D,2) (C,D, | C,2) B,,2 A,,4 | G,,2 D,2 D,2 D,2 | C,4 D,2 F,2- | F,2 G,2 D,4 | %51
w: chi\- * * * * rez *|* mon pil-|chon, vous mi des-|chi- rez mon|* pil- chon|
 z4 G,3 G, | C,2 C,2 D,2 G,,2 | G,2 z2 G,2 z2 | F,2 z2 G,3 G, | G,2 G,2 D,2 G,2 | %56
w: Ay ay|ay ay ay ay|ay ay|ay ay ay|ay ay ay ay|
 C,C,C,C, D,2 G,,2 | z2 G,2 G,2 G,2 | C,4 D,2 F,2- | F,2 G,2 D,4 | z2 G,2 z2 G,2 | %61
w: ay ay ay ay ay ay|vous mi des-|chi- rez mon|* pli- chon,|vous, vous|
 G, z G,2 G,2 G,2 | z2 G,2 D,2 D,2 | C,4 D,2 G,2 | G,2 G,2 C,4 | D,2 F,2 z2 G,2 | D,2 D,2 C,4 | %67
w: mi, vous mi des,|vous mi des-|chi- rez, vous|mi des- chi-|rez mon, vous|mi des- chi-|
 D,2 F,4 G,2 | z2 G,2 G,2 G,2 | C,4 D,2 F,2- | F,2 G,2 D,4 | z2 G,2 D,2 D,2 | C,4 D,2 (F,2- | %73
w: rez mon pli,|vous mi des-|chi- rez mon|* pli- chon,|vous mi des-|chi- rez mon|
 F,2 G,2) D,4 | G,,8- | G,,8 |] %76
w: * * pli-|chon.||

